public/assets/join-decor.svg

<svg xmlns="http://www.w3.org/2000/svg" width="497" height="987" fill="none" viewBox="0 0 497 987"><g stroke="#adcb53" stroke-miterlimit="10" clip-path="url(#a)" opacity=".5"><path d="M680.66 696.91c-42.807-.33-85.669-18.838-116.335-49.603s-48.322-73.963-48.407-116.542c.054-15.887 2.402-31.799-1.788-47.309-3.565-12.733-11.155-23.947-17.138-35.834-22.074-42.982-22.975-95.706-1.883-137.708 26.487-52.545 98.048-95.123 159.509-81.905"/><path d="M612.814 826.419c-70.319.312-139.293-53.108-157.353-121.684-8.882-34.618-6.217-71.169-15.754-105.779-10.695-38.2-35.884-70.993-52.382-107.161-28.232-61.91-29.44-134.61-3.364-195.666s79.017-108.99 142.147-129.2c9.957 2.507 8.617 5.306 18.353 3.23 22.376-5.169 46.801-1.845 67.656 9.053"/><path d="M538.565 938.487c-44.594 13.611-94.907-16.603-119.835-57.588s-30.712-89.559-35.917-136.337c-4.359-39.419-3.103-84.797-15.904-122.481-12.223-35.89-38.722-68.669-56.406-102.203-50.143-94.741-65.872-210.182-24.239-305.644 41.633-95.461 146.592-162.823 251.237-144.857"/></g><defs><clipPath id="a"><path fill="#fff" d="M.422 494.924 522.36 986.656l465.726-494.333L466.148.59z"/></clipPath></defs></svg>

<svg width="497" height="987" viewBox="0 0 497 987" fill="none" xmlns="http://www.w3.org/2000/svg">
<g opacity="0.5" clip-path="url(#clip0_8118_106)">
<path d="M680.66 696.91C637.853 696.58 594.991 678.072 564.325 647.307C533.659 616.541 516.003 573.344 515.918 530.765C515.972 514.878 518.32 498.966 514.13 483.456C510.565 470.723 502.975 459.509 496.992 447.622C474.918 404.64 474.017 351.916 495.109 309.914C521.596 257.369 593.157 214.791 654.618 228.009" stroke="#ADCB53" stroke-miterlimit="10"/>
<path d="M612.814 826.419C542.495 826.731 473.521 773.311 455.461 704.735C446.579 670.117 449.244 633.566 439.707 598.956C429.012 560.756 403.823 527.963 387.325 491.795C359.093 429.885 357.885 357.185 383.961 296.129C410.037 235.073 462.978 187.139 526.108 166.929C536.065 169.436 534.725 172.235 544.461 170.159C566.837 164.99 591.262 168.314 612.117 179.212" stroke="#ADCB53" stroke-miterlimit="10"/>
<path d="M538.565 938.487C493.971 952.098 443.658 921.884 418.73 880.899C393.802 839.914 388.018 791.34 382.813 744.562C378.454 705.143 379.71 659.765 366.909 622.081C354.686 586.191 328.187 553.412 310.503 519.878C260.36 425.137 244.631 309.696 286.264 214.234C327.897 118.773 432.856 51.4113 537.501 69.377" stroke="#ADCB53" stroke-miterlimit="10"/>
</g>
<defs>
<clipPath id="clip0_8118_106">
<rect width="717.091" height="679.166" fill="white" transform="matrix(0.727854 0.685732 0.685732 -0.727854 0.422363 494.924)"/>
</clipPath>
</defs>
</svg>
